X: 16
T: Morpeth Rant
R: reel
M: C|
L: 1/8
Z: 2010 John Chambers <jc:trillian.mit.edu>
B: 19th century tune book collected by W.A. Cocks.
F: http://www.asaplive.com/archive/browse_by_collection.asp
N: The asaplive.com web site is complex, and links to its files don't usually work.
K: G
DF | G2.D.C B,G,B,D | ECEG FDFA | BGcA dBAG | F2A2 AcBA | G2.D.C B,G,B,D |
ECEG FDFA |BGcA dBAG | D2G2G2 :||: (ef) | gdBG FAce | dBAG GFED |
cecA BdBG | F2D2 D2(EF) | ECEG cBAG | FDFA dcBA | Bgfe dcBA | B2G2G2 :|


%%sep 5 1 500

